X:99
T:Drucken Moll Knox
Z:Jack Campin, http://www.campin.me.uk/
S:Northumbrian Minstrelsy
M:C
L:1/8
P:ABA
% printed with a da capo
K:C
P:A
B2 G>A GB (3dcB|c2 A>B cd (3edc|B2    G>A  GB (3dcB|c>BAg (3fef g2:|
P:B
g2 eg  f2  dB  |c2 Ac  B2   G2 |(3gfg eg (3fef  dB |ced^c   d2  ef | 
g2 eg  f2  dB  |c2 Ac  B2   G2 |(3gfg eg (3fef  dB |ced^c   d2 =c2:|

